X:1
T:Title
%%score { ( 1 3 ) | ( 2 4 ) }
L:1/8
M:4/4
K:Bb
V:1 treble nm="Grand Piano"
V:3 treble 
V:2 bass 
V:4 bass 
V:1
 z4 z2[Q:1/4=100] [DF][DF] | [DB][DB][FB]c d2 [FB][FA] | GGBB e2 GG | [DF][DF][DF][DF] [FB][FB]cd | %4
 c6 z2 |[M:3/4] [DB][DB] [FB]c d2 |[M:1/4] [FB][FA] |[M:4/4] GGBB [Ge]2 [Gd][Gc] | %8
 [GB][GB]AG F2 c2 | [DB]6 z2 | [Fd][Fd][Fd][Ec] [DB]>[DA] [DB]2 | c6 z2 | cccA G2 F2 | B6 z2 | %14
 [Fd][Fd][Fd][Ec] [DB][DA][DB][FA] | G2 c2 [Ge]2 [Ge]>[Ge] | [Fd]2 [Bf]2 [EAce]3 [DFBd] | %17
[M:3/4] [DFBd]6 |] %18
V:2
 z4 z2 [B,,B,][B,,B,] | [B,,F,][B,,F,][D,B,][K:treble][F,A,F] [B,F]2[K:bass] [D,B,][D,B,] | %2
 [E,B,E][E,B,E][E,G,E][E,G,E] [G,B,E]2 [E,B,E][E,B,E] | %3
 [B,,B,][B,,B,][B,,B,][B,,B,] [D,B,][D,B,][F,A,E][K:treble][B,F] | %4
 [A,CF]2[K:bass] [G,B,]2 [F,A,]2 [F,A,E][F,A,E] | %5
[M:3/4] [B,,B,][B,,B,] [D,B,][K:treble][F,A,F] [B,F]2 |[M:1/4][K:bass] [D,B,][D,B,] | %7
[M:4/4] [E,B,E][E,B,E][E,G,E][E,G,E] [C,C]2 [D,=B,][E,C] | %8
 [=E,_D][E,D][E,B,D][E,B,D] [F,B,=D]2 [F,A,E]2 | [B,,B,]6 z2 | %10
 [B,,B,][B,,B,][B,,B,][B,,F,] [B,,F,]>[B,,F,] [B,,F,]2 | [F,A,F]2 [G,B,]2 [A,C]2 G,2 | %12
 [F,A,F][F,A,F][F,A,F][F,CF] [F,B,E]2 [F,A,E]2 | z2 G,2 F,2 z2 | %14
 [B,,B,][B,,B,][B,,B,][B,,F,] [B,,F,][B,,F,][B,,B,][D,B,] | B,2 z2 z4 | [F,B,]2 [F,DF]2 F,3 B,, | %17
[M:3/4] B,,6 |] %18
V:3
 x8 | x8 | x8 | x8 | z2 =E2 _E2 FF |[M:3/4] x6 |[M:1/4] x2 |[M:4/4] x8 | x8 | x8 | x8 | %11
 z2 =E2 _E2 B,2 | x8 | [B,D]2 E2 D2 z2 | x8 | x8 | x8 |[M:3/4] x6 |] %18
V:4
 x8 | x3[K:treble] x3[K:bass] x2 | x8 | x7[K:treble] x | x2[K:bass] x6 |[M:3/4] x3[K:treble] x3 | %6
[M:1/4][K:bass] x2 |[M:4/4] x8 | x8 | x8 | x8 | x8 | x8 | B,,6 z2 | x8 | %15
 [E,E]2- [E,G,E]2 [C,C]2 [E,C]>[E,C] | x8 |[M:3/4] x6 |] %18

